app/Resources/icons/user-add.svg

<svg xmlns="http://www.w3.org/2000/svg" viewBox="0 0 24 24">
    <g>
        <path fill="none" d="M0 0h24v24H0z"/>
        <path d="M14 14.252V22H4a8 8 0 0 1 10-7.748zM12 13c-3.315 0-6-2.685-6-6s2.685-6 6-6 6 2.685 6 6-2.685 6-6 6zm6 4v-3h2v3h3v2h-3v3h-2v-3h-3v-2h3z"/>
    </g>
</svg>

<svg xmlns="http://www.w3.org/2000/svg" viewBox="0 0 24 24"><path d="M14 14.252V22H4C4 17.5817 7.58172 14 12 14C12.6906 14 13.3608 14.0875 14 14.252ZM12 13C8.685 13 6 10.315 6 7C6 3.685 8.685 1 12 1C15.315 1 18 3.685 18 7C18 10.315 15.315 13 12 13ZM18 17V14H20V17H23V19H20V22H18V19H15V17H18Z"></path></svg>
